src/assets/Cog.svg

<svg width="24" height="24" viewBox="0 0 24 24" fill="none" xmlns="http://www.w3.org/2000/svg">
<path fill-rule="evenodd" clip-rule="evenodd" d="M13.5267 1.1057C13.0428 -0.368566 10.9572 -0.368566 10.4733 1.1057C10.1118 2.20697 8.73871 2.57488 7.87501 1.80191C6.71877 0.767127 4.91266 1.80989 5.23069 3.32861C5.46825 4.46309 4.46308 5.46825 3.32861 5.23069C1.80989 4.91266 0.767127 6.71877 1.80191 7.87501C2.57488 8.73871 2.20697 10.1118 1.1057 10.4733C-0.368566 10.9572 -0.368566 13.0428 1.1057 13.5267C2.20697 13.8882 2.57488 15.2613 1.80191 16.125C0.767127 17.2812 1.80989 19.0873 3.32861 18.7693C4.46309 18.5317 5.46825 19.5369 5.23069 20.6714C4.91266 22.1901 6.71877 23.2329 7.87501 22.1981C8.73871 21.4251 10.1118 21.793 10.4733 22.8943C10.9572 24.3686 13.0428 24.3686 13.5267 22.8943C13.8882 21.793 15.2613 21.4251 16.125 22.1981C17.2812 23.2329 19.0873 22.1901 18.7693 20.6714C18.5317 19.5369 19.5369 18.5317 20.6714 18.7693C22.1901 19.0873 23.2329 17.2812 22.1981 16.125C21.4251 15.2613 21.793 13.8882 22.8943 13.5267C24.3686 13.0428 24.3686 10.9572 22.8943 10.4733C21.793 10.1118 21.4251 8.73871 22.1981 7.87501C23.2329 6.71877 22.1901 4.91266 20.6714 5.23069C19.5369 5.46825 18.5317 4.46309 18.7693 3.32861C19.0873 1.80989 17.2812 0.767127 16.125 1.80191C15.2613 2.57488 13.8882 2.20697 13.5267 1.1057ZM12 18.0431C15.3389 18.0431 18.0457 15.3363 18.0457 11.9974C18.0457 8.65849 15.3389 5.95176 12 5.95176C8.66108 5.95176 5.95435 8.65849 5.95435 11.9974C5.95435 15.3363 8.66108 18.0431 12 18.0431Z" fill="currentColor"/>
</svg>

<svg xmlns="http://www.w3.org/2000/svg" width="24" height="24" fill="none"><path fill="currentColor" fill-rule="evenodd" d="M13.527 1.106c-.484-1.475-2.57-1.475-3.054 0a1.607 1.607 0 0 1-2.598.696C6.719.767 4.913 1.81 5.231 3.329A1.607 1.607 0 0 1 3.329 5.23C1.809 4.913.767 6.719 1.802 7.875a1.607 1.607 0 0 1-.696 2.598c-1.475.484-1.475 2.57 0 3.054a1.607 1.607 0 0 1 .696 2.598c-1.035 1.156.008 2.962 1.527 2.644a1.607 1.607 0 0 1 1.902 1.902c-.318 1.52 1.488 2.562 2.644 1.527a1.607 1.607 0 0 1 2.598.696c.484 1.475 2.57 1.475 3.054 0a1.607 1.607 0 0 1 2.598-.696c1.156 1.035 2.962-.008 2.644-1.527a1.607 1.607 0 0 1 1.902-1.902c1.52.318 2.562-1.488 1.527-2.644a1.607 1.607 0 0 1 .696-2.598c1.475-.484 1.475-2.57 0-3.054a1.607 1.607 0 0 1-.696-2.598c1.035-1.156-.008-2.962-1.527-2.644a1.607 1.607 0 0 1-1.902-1.902c.318-1.52-1.488-2.562-2.644-1.527a1.607 1.607 0 0 1-2.598-.696M12 18.043a6.046 6.046 0 1 0 0-12.091 6.046 6.046 0 0 0 0 12.091" clip-rule="evenodd"/></svg>
